X:1
T:Help Us to Labor On
T:Help Us to Labor On
T:William Howard Doane
T:Frances Jane (Fanny) Crosby, 1883
T:Public Domain Courtesy of the Cyber Hymnal™
C:William Howard Doane
Z:Public Domain
Z:Courtesy of the Cyber Hymnal™
%%score ( 1 2 ) ( 3 4 )
L:1/8
Q:1/4=110
M:3/4
K:Bb
V:1 treble 
V:2 treble 
V:3 bass 
V:4 bass 
V:1
 [Fd]4 [Ec][DB] | [EB][EA] [EA]4 | [Fc]2 [FB]2 [Fc]2 | [Fd]4 z2 | [Fd]4 [=Ec][GB] | %5
w: 1.~Help us to|la- bor on,|Sav- ior, for|Thee;|Faith- ful in|
w: 2.~Help us to|la- bor on,|Cheered from a-|bove;|Sow- ing the|
w: 3.~Help us to|la- bor on,|Lord, not in|vain;|O may we|
 [GB][FA] [FA]4 | [DG]2 [CF]2 [C=E]2 | [CF]4 z2 ||"^Refrain" [DF]2 [FB]2 [Fd]2 | [Fd][Fc] [Fc]4 | %10
w: word and deed,|O may we|be.|||
w: word of life,|Tell- ing Thy|love.|||
w: ga- ther in,|Bright, gold- en|grain.|||
 [Fc]2 [Fd]2 [Fe]2 | [Fe][Fd] [Fd]4 | [Fd][Fd] [Fc]2 [FB]2 | [Gc][GB] [EG]4 | [DF] [Fd]3 c2 | %15
w: |||||
w: |||||
w: |||||
 [DB]4 z2 |] %16
w: |
w: |
w: |
V:2
 x6 | x6 | x6 | x6 | x6 | x6 | x6 | x6 || x6 | x6 | x6 | x6 | x6 | x6 | x4 (ED) | x6 |] %16
V:3
 B,4 [F,A,][F,B,] | [F,C][F,C] [F,C]4 | [F,E]2 [F,D]2 [F,A,]2 | [B,,B,]4 z2 | %4
w: ~ ~ ~|~ ~ ~|~ ~ ~|~|
 (B,2 G,2) [C,G,][=E,C] | [F,C][F,C] [F,C]4 | [B,,B,]2 [B,,A,]2 [C,B,]2 | [F,A,]4 z2 || %8
w: ~ * ~ ~|~ ~ ~|~ ~ ~|~|
 [B,,B,]2 [D,B,]2 [B,,B,]2 | [F,B,][F,A,] [F,A,]4 | [F,A,]2 [F,B,]2 [F,C]2 | [A,C]B, B,4 | %12
w: Till all our|work is done,|Our crown of|glo- ry won,|
 [B,,B,][B,,B,] [C,A,]2 [D,B,]2 | [E,E][E,E] [E,B,]4 | [F,B,] [F,B,]3 [F,A,]2 | [B,,B,]4 z2 |] %16
w: Help us, Lord, to|la- bor on,|Trust- ing in|Thee.|
V:4
 (B,,2 D,2) x2 | x6 | x6 | x6 | B,,4 x2 | x6 | x6 | x6 || x6 | x6 | x6 | x B, B,4 | x6 | x6 | x6 | %15
 x6 |] %16

